material/.icons/material/bowl-mix.svg

<svg xmlns="http://www.w3.org/2000/svg" viewBox="0 0 24 24"><path d="M16.2 11l4.1-6.5 1.7 1-3.4 5.5h-2.4m-.6 1H2v3c0 3.9 3.1 7 7 7h6c3.9 0 7-3.1 7-7v-3h-6.4z"/></svg>

<?xml version="1.0" encoding="UTF-8"?><!DOCTYPE svg PUBLIC "-//W3C//DTD SVG 1.1//EN" "http://www.w3.org/Graphics/SVG/1.1/DTD/svg11.dtd"><svg xmlns="http://www.w3.org/2000/svg" xmlns:xlink="http://www.w3.org/1999/xlink" version="1.1" id="mdi-bowl-mix" width="24" height="24" viewBox="0 0 24 24"><path d="M16.2 11L20.3 4.5L22 5.5L18.6 11H16.2M15.6 12H2V15C2 18.9 5.1 22 9 22H15C18.9 22 22 18.9 22 15V12H15.6Z" /></svg>
